X:20
T:Brudmarsch
C:Ekor Anders
O:Älvdalen, Dalarna
R:Marsch
Z:Erik Ronström 2007-09-08
O:Efter Jonny Soling
M:2/4
L:1/16
K:D
(A,2|:D2)DE {G}(TFE)FG|A2(3A(Bc) d2cd|[e2e2]ed c2Ac|B2BG (TBA)AF|
D2DE (TFE)FG|A2(3A(Bc) d2cd|e2ed Tc2Ac|[1[M:3/4]TB2AG [A6A6] (A,2[M:2/4]:|
[2[M:3/4]TB2AG [A8A8]|:[M:2/4]{f}f2fd e2e(,c|(3A)ABAF D2DF|E2EC ECEC|(TED)DF [AA]4|
Tf2ed Tf2e(,d|(3A)ABAF D2DF|E2EC ECEC|[M:3/4][1(C2D2) [D8D8]:|[2[M:3/4](MC2D2) [D6D6]|]
(:musicend:)

(:music:)
